X:1
T:Resurrexit, 87.87.75.75.87.87
T:Resurrexit, 87.87.75.75.87.87
T:Arthur Seymour Sullivan, 1874
T:Public Domain Courtesy of the Cyber Hymnal™
C:Arthur Seymour Sullivan, 1874
Z:Public Domain
Z:Courtesy of the Cyber Hymnal™
%%score ( 1 2 ) ( 3 4 )
L:1/8
Q:1/4=115
M:none
K:A
V:1 treble 
V:2 treble 
V:3 bass 
V:4 bass 
V:1
 [Ec]2 [Ec]2 [Ec]2 [Ec]2 | [Ge]3 [Gd] [Gc]2 [GB]2 | A2 [FA]2 [FB]2 [Ec]2 | d3 (z d) [Ec]4 | %4
 [Ec]2 [^EB]2 [FA]2 [^DF]2 | [EB]3 [GB] [GB]2 [FA]2 | [^DA]2 [EG]2 [CF]2 [B,G]2 | %7
 [A,F]3 [A,F] [G,E]4 | E2 [EF]2 [EG]2 [EA]2 | [EB]3 [EA] [EG]4 | [CA]2 [CA]2 [FB]2 [FB]2 | %11
 [^Ec]6 z2 | F2 [FG]2 [F^A]2 [FB]2 | [Fc]3 [FB] [F^A]4 | [^DB]2 [DB]2 [Ec]2 [F^d]2 | [Ge]6 z2 | %16
 [Ac]2 [Ac]2 [Ec]2 [Ec]2 | [Ge]3 [Gd] [Gc]2 [GB]2 | A2 [FA]2 [FB]2 [Fc]2 | [Fd]3 [Fd] [Fc]4 | %20
 F2 [FB]2 [FG]2 c2 | A2 [A,d]2 [B,B]2 [Be]2 | e3 [Gd] ([Ad][Ec]) (BA) | [EA]2 [EG]2 [EA]4 |] %24
V:2
 x8 | x8 | A2 x6 | F2 E2 x5 | x8 | x8 | x8 | x8 | E2 x6 | x8 | x8 | x8 | F2 x6 | x8 | x8 | x8 | %16
 x8 | x8 | A2 x6 | x8 | F2 x2 (ED) x2 | (CB,) x6 | (AE) (A x2 F2) x | x8 |] %24
V:3
 [A,,A,]2 [C,A,]2 [E,A,]2 A,2 | [E,D]3 [E,B,] [E,E]2 [E,D]2 | [F,C]2 [E,C]2 [D,D]2 [C,A,]2 | %3
 [B,,A,]2 [E,G,]2 [A,,A,]4 x | A,2 [G,B,]2 [F,C]2 [F,A,]2 | [G,B,]3 [G,B,] [A,C]2 [A,,C]2 | %6
 [B,,F,]2 [B,,G,]2 [A,,A,]2 [G,,B,]2 | [A,,C]2 [B,,^D]2 [E,E]4 | [D,G,]2 [C,A,]2 [B,,B,]2 [A,,C]2 | %9
 [G,,D]3 [A,,C] [E,B,]4 | [F,A,]2 [F,A,]2 [D,F,]2 [D,F,]2 | [C,G,]6 z2 | %12
 [F,^A,]2 [D,B,]2 [C,C]2 [B,,D]2 | [^A,,E]3 [B,,D] [F,C]4 | B,2 [A,B,]2 [G,B,]2 [F,B,]2 | %15
 [E,B,]6 z2 | [A,,A,]2 [C,A,]2 [E,A,]2 A,2 | [E,D]3 [E,B,] [E,E]2 [E,D]2 | %18
 [F,C]2 [E,C]2 [D,D]2 [C,E]2 | [B,,D]2 [D,B,]2 [F,^A,]4 | [D,B,]2 [B,,D]2 [E,B,]2 [E,G,]2 | %21
 [F,A,]2 [F,F]2 [G,F]2 (ED) | [A,C]2 [B,D]2 E2 (DC) | (B,C) [E,D]2 [A,,C]4 |] %24
V:4
 x6 A,2 | x8 | x8 | x9 | A,2 x6 | x8 | x8 | x8 | x8 | x8 | x8 | x8 | x8 | x8 | B,2 x6 | x8 | %16
 x6 A,2 | x8 | x8 | x8 | x8 | x6 G,2 | x4 (CC,) D,2 | E,2 x6 |] %24

